dist/svg/folder-cloud.svg

<!-- Generated by Trend Micro Style Portal -->
<svg version="1.1" xmlns="http://www.w3.org/2000/svg" width="16" height="16" viewBox="0 0 16 16">
  <title>folder-cloud</title>
  <path fill="rgb(34,34,34)" d="M15 4h-14v-3.070c0.005-0.516 0.424-0.932 0.94-0.932 0.021 0 0.042 0.001 0.063 0.002l-0.003-0h5l1 2h6c0.018-0.001 0.039-0.002 0.060-0.002 0.516 0 0.935 0.416 0.94 0.931v1.070zM2.55 10c0.707-1.194 1.988-1.983 3.454-1.983 1.054 0 2.014 0.408 2.728 1.075l-0.002-0.002c0.231-0.057 0.497-0.090 0.77-0.090v0c1.386 0.004 2.583 0.81 3.151 1.979l0.009 0.021h1.34c0.001 0 0.003 0 0.004 0 0.357 0 0.699 0.062 1.016 0.177l-0.021-0.007c0.005-0.036 0.007-0.078 0.007-0.12s-0.003-0.084-0.008-0.125l0.001 0.005v-5.93h-14v5.35c0.438-0.218 0.954-0.347 1.499-0.35h0.001zM16 14c0 1.105-0.895 2-2 2v0h-11.5c-1.381 0-2.5-1.119-2.5-2.5s1.119-2.5 2.5-2.5v0c0.233 0.005 0.456 0.041 0.668 0.105l-0.018-0.005c0.403-1.213 1.528-2.073 2.853-2.073 0.988 0 1.865 0.478 2.411 1.215l0.006 0.008c0.32-0.161 0.697-0.255 1.096-0.255 1.202 0 2.204 0.855 2.431 1.989l0.003 0.016h2.050c1.105 0 2 0.895 2 2v0zM15 14c0-0.552-0.448-1-1-1v0h-2.87l-0.13-0.8c-0.144-0.69-0.747-1.2-1.47-1.2-0.011 0-0.021 0-0.032 0l0.002-0c-0.233 0.002-0.453 0.057-0.649 0.154l0.009-0.004-0.75 0.36-0.49-0.68c-0.368-0.496-0.952-0.814-1.61-0.814-0.881 0-1.629 0.569-1.895 1.36l-0.004 0.014-0.29 0.91-0.93-0.25c-0.115-0.032-0.247-0.050-0.383-0.050-0.003 0-0.005 0-0.008 0h0c-0.828 0-1.5 0.672-1.5 1.5s0.672 1.5 1.5 1.5v0h11.5c0.552 0 1-0.448 1-1v0z"></path>
</svg>

<svg width="16" height="16" viewBox="0 0 16 16" fill="rgb(34, 34, 34)" xmlns="http://www.w3.org/2000/svg"><title>folder-cloud</title><path d="M15 4H1V0.930001C1.005 0.414001 1.424 -0.0019989 1.94 -0.0019989C1.961 -0.0019989 1.982 -0.000998901 2.003 1.09873e-06H2H7L8 2H14C14.018 1.999 14.039 1.998 14.06 1.998C14.576 1.998 14.995 2.414 15 2.929V4ZM2.55 10C3.257 8.806 4.538 8.017 6.004 8.017C7.058 8.017 8.018 8.425 8.732 9.092L8.73 9.09C8.961 9.033 9.227 9 9.5 9C10.886 9.004 12.083 9.81 12.651 10.979L12.66 11H14C14.001 11 14.003 11 14.004 11C14.361 11 14.703 11.062 15.02 11.177L14.999 11.17C15.004 11.134 15.006 11.092 15.006 11.05C15.006 11.008 15.003 10.966 14.998 10.925L14.999 10.93V5H0.999V10.35C1.437 10.132 1.953 10.003 2.498 10H2.499H2.55ZM16 14C16 15.105 15.105 16 14 16H2.5C1.119 16 0 14.881 0 13.5C0 12.119 1.119 11 2.5 11C2.733 11.005 2.956 11.041 3.168 11.105L3.15 11.1C3.553 9.887 4.678 9.027 6.003 9.027C6.991 9.027 7.868 9.505 8.414 10.242L8.42 10.25C8.74 10.089 9.117 9.995 9.516 9.995C10.718 9.995 11.72 10.85 11.947 11.984L11.95 12H14C15.105 12 16 12.895 16 14ZM15 14C15 13.448 14.552 13 14 13H11.13L11 12.2C10.856 11.51 10.253 11 9.53 11C9.519 11 9.509 11 9.498 11H9.5C9.267 11.002 9.047 11.057 8.851 11.154L8.86 11.15L8.11 11.51L7.62 10.83C7.252 10.334 6.668 10.016 6.01 10.016C5.129 10.016 4.381 10.585 4.115 11.376L4.111 11.39L3.821 12.3L2.891 12.05C2.776 12.018 2.644 12 2.508 12C2.505 12 2.503 12 2.5 12C1.672 12 1 12.672 1 13.5C1 14.328 1.672 15 2.5 15H14C14.552 15 15 14.552 15 14Z" fill="rgb(34, 34, 34)" fill-opacity="1.00"/></svg>
